portal/assets/img/component/storybook-icon.svg

<svg width="13" height="16" viewBox="0 0 13 16" fill="none" xmlns="http://www.w3.org/2000/svg">
<mask id="mask0_1438_4436" style="mask-type:alpha" maskUnits="userSpaceOnUse" x="0" y="0" width="13" height="16">
<path d="M0.49517 14.7122L0.000574853 1.53345C-0.0157597 1.09821 0.317968 0.729349 0.752668 0.70218L11.9621 0.0015905C12.4046 -0.026064 12.7857 0.310212 12.8133 0.752685C12.8144 0.769356 12.8149 0.786055 12.8149 0.802758V15.1633C12.8149 15.6067 12.4555 15.966 12.0122 15.966C12.0002 15.966 11.9882 15.9658 11.9762 15.9652L1.26132 15.484C0.844019 15.4653 0.510836 15.1296 0.49517 14.7122Z" fill="white"/>
</mask>
<g mask="url(#mask0_1438_4436)">
<path d="M0.49517 14.7122L0.000574853 1.53345C-0.0157597 1.09821 0.317968 0.729349 0.752668 0.70218L11.9621 0.0015905C12.4046 -0.026064 12.7857 0.310212 12.8133 0.752685C12.8144 0.769356 12.8149 0.786055 12.8149 0.802758V15.1633C12.8149 15.6067 12.4555 15.966 12.0122 15.966C12.0002 15.966 11.9882 15.9658 11.9762 15.9652L1.26132 15.484C0.844019 15.4653 0.510836 15.1296 0.49517 14.7122Z" fill="#FF4785"/>
<path d="M9.4632 1.96248L9.53977 0.120952L11.0792 0L11.1455 1.89911C11.1478 1.9652 11.0961 2.02065 11.03 2.02296C11.0017 2.02395 10.9739 2.01487 10.9517 1.99735L10.3581 1.5297L9.65521 2.06286C9.60252 2.10283 9.52741 2.09251 9.48744 2.03982C9.47061 2.01765 9.46204 1.9903 9.4632 1.96248ZM7.49446 6.01782C7.49446 6.33013 9.59814 6.18045 9.88054 5.96107C9.88054 3.83432 8.73937 2.71675 6.64971 2.71675C4.56004 2.71675 3.38923 3.85171 3.38923 5.55415C3.38923 8.51924 7.39072 8.57599 7.39072 10.1933C7.39072 10.6473 7.16842 10.9169 6.67935 10.9169C6.04207 10.9169 5.79013 10.5914 5.81977 9.4848C5.81977 9.24474 3.38923 9.1699 3.31513 9.4848C3.12644 12.1665 4.79716 12.94 6.70899 12.94C8.56153 12.94 10.0139 11.9525 10.0139 10.1649C10.0139 6.98704 5.95315 7.07217 5.95315 5.49741C5.95315 4.85899 6.4274 4.77387 6.70899 4.77387C7.00539 4.77387 7.53892 4.82611 7.49446 6.01782Z" fill="white"/>
</g>
</svg>

<svg width="13" height="16" viewBox="0 0 13 16" fill="none" xmlns="http://www.w3.org/2000/svg"><mask id="a" style="mask-type:alpha" maskUnits="userSpaceOnUse" x="0" y="0" width="13" height="16"><path d="M.495 14.712.001 1.533a.803.803 0 0 1 .752-.83l11.21-.701a.803.803 0 0 1 .852.8v14.361a.803.803 0 0 1-.839.802l-10.715-.481a.803.803 0 0 1-.766-.772Z" fill="#fff"/></mask><g mask="url(#a)"><path d="M.495 14.712.001 1.533a.803.803 0 0 1 .752-.83l11.21-.701a.803.803 0 0 1 .852.8v14.361a.803.803 0 0 1-.839.802l-10.715-.481a.803.803 0 0 1-.766-.772Z" fill="#FF4785"/><path d="M9.463 1.962 9.54.121 11.08 0l.066 1.9a.12.12 0 0 1-.194.097l-.594-.467-.703.533a.12.12 0 0 1-.192-.1ZM7.494 6.018c0 .312 2.104.162 2.387-.057 0-2.127-1.142-3.244-3.231-3.244-2.09 0-3.26 1.135-3.26 2.837 0 2.965 4 3.022 4 4.64 0 .453-.222.723-.71.723-.638 0-.89-.326-.86-1.432 0-.24-2.43-.315-2.505 0-.189 2.681 1.482 3.455 3.394 3.455 1.853 0 3.305-.987 3.305-2.775 0-3.178-4.06-3.093-4.06-4.668 0-.638.473-.723.755-.723.296 0 .83.052.785 1.244Z" fill="#fff"/></g></svg>
